images/medium.svg

<svg width="36" height="36" viewBox="0 0 36 36" fill="none" xmlns="http://www.w3.org/2000/svg">
<circle cx="18" cy="18.0002" r="18" fill="#03B098"/>
<path fill-rule="evenodd" clip-rule="evenodd" d="M11.0278 14.4543C11.0491 14.2453 10.9686 14.0391 10.8119 13.8988L9.21589 11.9857V11.7002H14.1735L18.0053 20.0575L21.374 11.7002H26.1V11.9857L24.7349 13.2873C24.6173 13.3766 24.5589 13.5233 24.5831 13.6685V23.2326C24.5589 23.3771 24.6173 23.5238 24.7349 23.613L26.0679 24.9146V25.2002H19.3619V24.9146L20.7434 23.5812C20.8788 23.4465 20.8788 23.4069 20.8788 23.2007V15.4704L17.0391 25.169H16.5204L12.0495 15.4704V21.9706C12.0125 22.2434 12.1037 22.519 12.2967 22.716L14.0929 24.8828V25.169H9V24.8828L10.7962 22.716C10.9886 22.5183 11.0741 22.2413 11.0278 21.9706V14.4543Z" fill="white"/>
</svg>

<svg xmlns="http://www.w3.org/2000/svg" width="36" height="36" fill="none" xmlns:v="https://vecta.io/nano"><circle cx="18" cy="18" r="18" fill="#03b098"/><path fill-rule="evenodd" d="M11.028 14.454c.021-.209-.059-.415-.216-.556l-1.596-1.913V11.7h4.958l3.832 8.357 3.369-8.357H26.1v.285l-1.365 1.302c-.118.089-.176.236-.152.381v9.564c-.024.144.034.291.152.38l1.333 1.302v.286h-6.706v-.286l1.382-1.333c.135-.135.135-.174.135-.38v-7.73l-3.84 9.699h-.519L12.05 15.47v6.5c-.037.273.054.548.247.745l1.796 2.167v.286H9v-.286l1.796-2.167a.86.86 0 0 0 .232-.745v-7.516z" fill="#fff"/></svg>
